src/img/icons/instagram.svg

<svg viewBox="0 0 24 24" fill="none" xmlns="http://www.w3.org/2000/svg">
<path fill-rule="evenodd" clip-rule="evenodd" d="M7.465 1.066C8.638 1.012 9.012 1 12 1C14.988 1 15.362 1.013 16.534 1.066C17.706 1.119 18.506 1.306 19.206 1.577C19.939 1.854 20.604 2.287 21.154 2.847C21.714 3.396 22.146 4.06 22.422 4.794C22.694 5.494 22.88 6.294 22.934 7.464C22.988 8.639 23 9.013 23 12C23 14.988 22.987 15.362 22.934 16.535C22.881 17.705 22.694 18.505 22.422 19.205C22.146 19.9391 21.7133 20.6042 21.154 21.154C20.604 21.714 19.939 22.146 19.206 22.422C18.506 22.694 17.706 22.88 16.536 22.934C15.362 22.988 14.988 23 12 23C9.012 23 8.638 22.987 7.465 22.934C6.295 22.881 5.495 22.694 4.795 22.422C4.06092 22.146 3.39582 21.7133 2.846 21.154C2.28638 20.6047 1.85331 19.9399 1.577 19.206C1.306 18.506 1.12 17.706 1.066 16.536C1.012 15.361 1 14.987 1 12C1 9.012 1.013 8.638 1.066 7.466C1.119 6.294 1.306 5.494 1.577 4.794C1.85372 4.06008 2.28712 3.39531 2.847 2.846C3.39604 2.2865 4.06047 1.85344 4.794 1.577C5.494 1.306 6.294 1.12 7.464 1.066H7.465ZM16.445 3.046C15.285 2.993 14.937 2.982 12 2.982C9.063 2.982 8.715 2.993 7.555 3.046C6.482 3.095 5.9 3.274 5.512 3.425C4.999 3.625 4.632 3.862 4.247 4.247C3.88205 4.60205 3.60118 5.03428 3.425 5.512C3.274 5.9 3.095 6.482 3.046 7.555C2.993 8.715 2.982 9.063 2.982 12C2.982 14.937 2.993 15.285 3.046 16.445C3.095 17.518 3.274 18.1 3.425 18.488C3.601 18.965 3.882 19.398 4.247 19.753C4.602 20.118 5.035 20.399 5.512 20.575C5.9 20.726 6.482 20.905 7.555 20.954C8.715 21.007 9.062 21.018 12 21.018C14.938 21.018 15.285 21.007 16.445 20.954C17.518 20.905 18.1 20.726 18.488 20.575C19.001 20.375 19.368 20.138 19.753 19.753C20.118 19.398 20.399 18.965 20.575 18.488C20.726 18.1 20.905 17.518 20.954 16.445C21.007 15.285 21.018 14.937 21.018 12C21.018 9.063 21.007 8.715 20.954 7.555C20.905 6.482 20.726 5.9 20.575 5.512C20.375 4.999 20.138 4.632 19.753 4.247C19.3979 3.88207 18.9657 3.60121 18.488 3.425C18.1 3.274 17.518 3.095 16.445 3.046ZM10.595 15.391C11.3797 15.7176 12.2534 15.7617 13.0669 15.5157C13.8805 15.2697 14.5834 14.7489 15.0556 14.0422C15.5278 13.3356 15.7401 12.4869 15.656 11.6411C15.572 10.7953 15.197 10.005 14.595 9.405C14.2112 9.02148 13.7472 8.72781 13.2363 8.54515C12.7255 8.36248 12.1804 8.29536 11.6405 8.34862C11.1006 8.40187 10.5792 8.57418 10.1138 8.85313C9.64845 9.13208 9.25074 9.51074 8.9493 9.96185C8.64786 10.413 8.45019 10.9253 8.37052 11.462C8.29084 11.9986 8.33115 12.5463 8.48854 13.0655C8.64593 13.5847 8.91648 14.0626 9.28072 14.4647C9.64496 14.8668 10.0938 15.1832 10.595 15.391ZM8.002 8.002C8.52702 7.47697 9.15032 7.0605 9.8363 6.77636C10.5223 6.49222 11.2575 6.34597 12 6.34597C12.7425 6.34597 13.4777 6.49222 14.1637 6.77636C14.8497 7.0605 15.473 7.47697 15.998 8.002C16.523 8.52702 16.9395 9.15032 17.2236 9.8363C17.5078 10.5223 17.654 11.2575 17.654 12C17.654 12.7425 17.5078 13.4777 17.2236 14.1637C16.9395 14.8497 16.523 15.473 15.998 15.998C14.9377 17.0583 13.4995 17.654 12 17.654C10.5005 17.654 9.06234 17.0583 8.002 15.998C6.94166 14.9377 6.34597 13.4995 6.34597 12C6.34597 10.5005 6.94166 9.06234 8.002 8.002ZM18.908 7.188C19.0381 7.06527 19.1423 6.91768 19.2143 6.75397C19.2863 6.59027 19.3248 6.41377 19.3274 6.23493C19.33 6.05609 19.2967 5.87855 19.2295 5.71281C19.1622 5.54707 19.0624 5.39651 18.936 5.27004C18.8095 5.14357 18.6589 5.04376 18.4932 4.97652C18.3275 4.90928 18.1499 4.87598 17.9711 4.87858C17.7922 4.88119 17.6157 4.91965 17.452 4.9917C17.2883 5.06374 17.1407 5.1679 17.018 5.298C16.7793 5.55103 16.6486 5.88712 16.6537 6.23493C16.6588 6.58274 16.7992 6.91488 17.0452 7.16084C17.2911 7.40681 17.6233 7.54723 17.9711 7.5523C18.3189 7.55737 18.655 7.42669 18.908 7.188Z" fill="#010101"/>
</svg>

<svg xmlns="http://www.w3.org/2000/svg" fill="none" viewBox="0 0 24 24"><path fill="#010101" fill-rule="evenodd" d="M7.465 1.066C8.638 1.012 9.012 1 12 1c2.988 0 3.362.013 4.534.066 1.172.053 1.972.24 2.672.511.733.277 1.398.71 1.948 1.27.56.549.992 1.213 1.268 1.947.272.7.458 1.5.512 2.67C22.988 8.639 23 9.013 23 12c0 2.988-.013 3.362-.066 4.535-.053 1.17-.24 1.97-.512 2.67a5.396 5.396 0 0 1-1.268 1.949c-.55.56-1.215.992-1.948 1.268-.7.272-1.5.458-2.67.512-1.174.054-1.548.066-4.536.066-2.988 0-3.362-.013-4.535-.066-1.17-.053-1.97-.24-2.67-.512a5.396 5.396 0 0 1-1.949-1.268 5.392 5.392 0 0 1-1.269-1.948c-.271-.7-.457-1.5-.511-2.67C1.012 15.361 1 14.987 1 12c0-2.988.013-3.362.066-4.534.053-1.172.24-1.972.511-2.672a5.396 5.396 0 0 1 1.27-1.948 5.392 5.392 0 0 1 1.947-1.269c.7-.271 1.5-.457 2.67-.511h.001Zm8.98 1.98c-1.16-.053-1.508-.064-4.445-.064-2.937 0-3.285.011-4.445.064-1.073.049-1.655.228-2.043.379-.513.2-.88.437-1.265.822a3.412 3.412 0 0 0-.822 1.265c-.151.388-.33.97-.379 2.043-.053 1.16-.064 1.508-.064 4.445 0 2.937.011 3.285.064 4.445.049 1.073.228 1.655.379 2.043.176.477.457.91.822 1.265.355.365.788.646 1.265.822.388.151.97.33 2.043.379 1.16.053 1.507.064 4.445.064 2.938 0 3.285-.011 4.445-.064 1.073-.049 1.655-.228 2.043-.379.513-.2.88-.437 1.265-.822.365-.355.646-.788.822-1.265.151-.388.33-.97.379-2.043.053-1.16.064-1.508.064-4.445 0-2.937-.011-3.285-.064-4.445-.049-1.073-.228-1.655-.379-2.043-.2-.513-.437-.88-.822-1.265a3.413 3.413 0 0 0-1.265-.822c-.388-.151-.97-.33-2.043-.379Zm-5.85 12.345a3.67 3.67 0 1 0 2.641-6.846 3.67 3.67 0 0 0-2.641 6.846ZM8.002 8.002a5.654 5.654 0 1 1 7.996 7.996 5.654 5.654 0 0 1-7.996-7.996Zm10.906-.814a1.336 1.336 0 1 0-1.834-1.944 1.336 1.336 0 0 0 1.834 1.944Z" clip-rule="evenodd"/></svg>
